assets/Skull and crossbones/Flat/skull_and_crossbones_flat.svg

<svg width="32" height="32" viewBox="0 0 32 32" fill="none" xmlns="http://www.w3.org/2000/svg">
<path d="M9.89491 6.86714L8.7237 5.69593C8.91758 5.34069 9.02777 4.93321 9.02777 4.5C9.02777 3.11929 7.90848 2 6.52777 2C5.30354 2 4.28483 2.87996 4.06965 4.04188C2.90773 4.25706 2.02777 5.27577 2.02777 6.5C2.02777 7.88071 3.14706 9 4.52777 9C4.96098 9 5.36846 8.88981 5.7237 8.69593L6.89461 9.86684C5.71581 11.6183 5.02777 13.7272 5.02777 15.9963C5.02777 18.0301 5.58512 19.4256 6.65422 20.33C7.05812 20.6717 7.52204 20.9315 8.03143 21.1294L5.72491 23.444C5.33894 23.1838 4.88188 23.0337 4.38419 23.0337C3.0841 23.0337 2.02777 24.0746 2.02777 25.3558C2.02777 26.6369 3.0841 27.6679 4.38419 27.6679C4.38419 28.949 5.43036 30 6.73045 30C8.03054 30 9.08687 28.9591 9.08687 27.6779C9.08687 27.1474 8.90404 26.667 8.59933 26.2766L10.2778 24.5923V25.0005C10.2778 26.1016 11.1768 27 12.2778 27C13.1346 27 13.8692 26.4558 14.1528 25.6955C14.4364 26.4558 15.1709 27 16.0278 27C16.8846 27 17.6192 26.4558 17.9028 25.6955C18.1864 26.4558 18.9209 27 19.7778 27C20.8787 27 21.7778 26.1016 21.7778 25.0005V24.5748L23.4777 26.35C23.2177 26.73 23.0677 27.18 23.0677 27.67C23.0677 28.95 24.1077 29.99 25.3877 29.99C26.6677 29.99 27.7077 28.95 27.7077 27.67C28.9877 27.67 30.0377 26.64 30.0377 25.36C30.0377 24.08 28.9977 23.04 27.7177 23.04C27.1877 23.04 26.7077 23.22 26.3177 23.52L24.025 21.1257C24.5339 20.9278 24.9975 20.6684 25.4011 20.3274C26.4704 19.424 27.0278 18.0302 27.0278 15.9963C27.0278 13.7272 26.3397 11.6183 25.1609 9.86684L26.3318 8.69593C26.6871 8.88981 27.0946 9 27.5278 9C28.9085 9 30.0278 7.88071 30.0278 6.5C30.0278 5.27577 29.1478 4.25706 27.9859 4.04188C27.7707 2.87996 26.752 2 25.5278 2C24.1471 2 23.0278 3.11929 23.0278 4.5C23.0278 4.93321 23.138 5.34069 23.3318 5.69593L22.1606 6.86714C20.4082 5.68815 18.2981 5 16.0278 5C13.7574 5 11.6473 5.68815 9.89491 6.86714Z" fill="#9B9B9B"/>
<path d="M6.02777 15.9963C6.02777 10.4771 10.5062 6 16.0278 6C21.5493 6 26.0278 10.4771 26.0278 15.9963C26.0278 17.8459 25.5277 18.9113 24.7557 19.5635C23.9578 20.2377 22.7768 20.5535 21.2349 20.6862L20.7778 20.7256V25.0005C20.7778 25.5489 20.3268 26 19.7778 26C19.2287 26 18.7778 25.5489 18.7778 25.0005V23.1188C18.7778 22.6356 18.386 22.2438 17.9028 22.2438C17.4195 22.2438 17.0278 22.6356 17.0278 23.1188V25.0005C17.0278 25.5489 16.5768 26 16.0278 26C15.4787 26 15.0278 25.5489 15.0278 25.0005V23.1188C15.0278 22.6356 14.636 22.2438 14.1528 22.2438C13.6695 22.2438 13.2778 22.6356 13.2778 23.1188V25.0005C13.2778 25.5489 12.8268 26 12.2778 26C11.7287 26 11.2778 25.5489 11.2778 25.0005V20.7245L10.8195 20.6861C9.27839 20.5571 8.09772 20.2413 7.30007 19.5665C6.52792 18.9134 6.02777 17.846 6.02777 15.9963Z" fill="white"/>
<path d="M24.4078 16.7733C24.4078 18.5793 22.9778 19 21.2178 19C19.4578 19 18.0278 18.5793 18.0278 16.7733C18.0278 14.9674 19.4578 13.5001 21.2178 13.5001C22.9778 13.4898 24.4078 14.9571 24.4078 16.7733Z" fill="#212121"/>
<path d="M14.0278 16.7775C14.0278 18.5801 12.5732 19 10.7829 19C8.99256 19 7.52777 18.5801 7.52777 16.7775C7.52777 14.9749 8.98239 13.5 10.7829 13.5C12.5833 13.5 14.0278 14.9646 14.0278 16.7775Z" fill="#212121"/>
<path d="M15.452 20H16.603C16.8968 20 17.1009 19.6604 17.003 19.3491L16.7826 18.6226C16.6683 18.2547 16.3662 18 16.0234 18C15.6805 18 15.3704 18.2547 15.2642 18.6321L15.052 19.3585C14.954 19.6698 15.1663 20 15.452 20Z" fill="#212121"/>
</svg>

<svg xmlns="http://www.w3.org/2000/svg" width="32" height="32" fill="none"><path fill="#9B9B9B" d="M9.895 6.867 8.724 5.696A2.5 2.5 0 1 0 4.07 4.042a2.5 2.5 0 1 0 1.654 4.654l1.17 1.17a10.94 10.94 0 0 0-1.866 6.13c0 2.034.557 3.43 1.626 4.334a4.8 4.8 0 0 0 1.377.8l-2.306 2.314a2.38 2.38 0 0 0-1.34-.41c-1.3 0-2.357 1.04-2.357 2.322 0 1.28 1.056 2.312 2.356 2.312A2.34 2.34 0 0 0 6.73 30c1.3 0 2.357-1.04 2.357-2.322 0-.53-.183-1.011-.488-1.401l1.679-1.685v.409c0 1.1.899 1.999 2 1.999.857 0 1.591-.544 1.875-1.305A2.006 2.006 0 0 0 16.028 27c.857 0 1.591-.544 1.875-1.305A2.006 2.006 0 0 0 19.778 27c1.1 0 2-.898 2-2v-.425l1.7 1.775a2.322 2.322 0 0 0 1.91 3.64c1.28 0 2.32-1.04 2.32-2.32 1.28 0 2.33-1.03 2.33-2.31s-1.04-2.32-2.32-2.32c-.53 0-1.01.18-1.4.48l-2.293-2.394a4.81 4.81 0 0 0 1.376-.799c1.07-.903 1.627-2.297 1.627-4.33 0-2.27-.688-4.379-1.867-6.13l1.17-1.171a2.5 2.5 0 1 0 1.654-4.654 2.5 2.5 0 1 0-4.653 1.654L22.16 6.867A10.95 10.95 0 0 0 16.028 5c-2.27 0-4.38.688-6.133 1.867Z"/><path fill="#fff" d="M6.028 15.996c0-5.519 4.478-9.996 10-9.996 5.521 0 10 4.477 10 9.996 0 1.85-.5 2.915-1.272 3.568-.798.674-1.98.99-3.521 1.122l-.457.04V25c0 .549-.451 1-1 1-.55 0-1-.451-1-1V23.12a.875.875 0 0 0-1.75 0V25c0 .549-.451 1-1 1-.55 0-1-.451-1-1V23.12a.875.875 0 0 0-1.75 0V25c0 .549-.451 1-1 1-.55 0-1-.451-1-1v-4.276l-.459-.038c-1.54-.129-2.721-.445-3.519-1.12-.772-.653-1.272-1.72-1.272-3.57Z"/><path fill="#212121" d="M24.408 16.773c0 1.806-1.43 2.227-3.19 2.227s-3.19-.42-3.19-2.227c0-1.806 1.43-3.273 3.19-3.273 1.76-.01 3.19 1.457 3.19 3.273ZM14.028 16.777c0 1.803-1.455 2.223-3.245 2.223s-3.255-.42-3.255-2.223c0-1.802 1.454-3.277 3.255-3.277 1.8 0 3.245 1.465 3.245 3.277ZM15.452 20h1.151c.294 0 .498-.34.4-.65l-.22-.727c-.115-.368-.417-.623-.76-.623-.342 0-.653.255-.759.632l-.212.726c-.098.312.114.642.4.642Z"/></svg>
